X:230
T:The Needham's 
R:
C:Bruce Osborne -- May 1998
Z:aabc by bosborne@kos.net
M:3/4
L:1/8
K:G
B,C|D2 DE DC|B,D G2 GA|B2 Bc BA|G4 FG|\
A2 AB AF|DF Ac BA|GF GA Be|d4 B,C|\
D2 DE DC|B,D G2 GA|B2 Bc BA|G4 FG|\
A2 AB AF|DF Ac BA|G2 GF GA|G4||\
B,D|G2 G2 GB|d2 d2 Bd|g3 f ed|A4 DF|\
A2 A2 DF|AB AF DF|GF GA Be|d4 B,D|\
G2 G2 GB|d2 d2 Bd|g3 f ed|A4 DF|\
A2 A2 DF|A2 A2 AB|cA FA DF|G4||
